app/icons/svg/ic_trash.svg

<?xml version="1.0" encoding="UTF-8"?>
<svg width="20px" height="22px" viewBox="0 0 20 22" version="1.1" xmlns="http://www.w3.org/2000/svg" xmlns:xlink="http://www.w3.org/1999/xlink">
    <title>ic_trash</title>
    <g id="--icons" stroke="none" stroke-width="1" fill="none" fill-rule="evenodd">
        <g id="Icons/Bund/ic_trash" transform="translate(-2.000000, -1.000000)" fill="#454545">
            <path d="M9.85599999,9.86399999 L9.85599999,17.568 C9.85599999,17.696 9.81599999,17.8 9.73599999,17.88 C9.65599999,17.96 9.55199999,18 9.42399999,18 L8.55999999,18 C8.43199999,18 8.32799998,17.96 8.24799998,17.88 C8.16799998,17.8 8.12799998,17.696 8.12799998,17.568 L8.12799998,9.86399999 C8.12799998,9.73599999 8.16799998,9.63199999 8.24799998,9.55199999 C8.32799998,9.47199999 8.43199999,9.43199999 8.55999999,9.43199999 L9.42399999,9.43199999 C9.55199999,9.43199999 9.65599999,9.47199999 9.73599999,9.55199999 C9.81599999,9.63199999 9.85599999,9.73599999 9.85599999,9.86399999 Z M13.288,9.86399999 L13.288,17.568 C13.288,17.696 13.248,17.8 13.168,17.88 C13.088,17.96 12.984,18 12.856,18 L11.992,18 C11.864,18 11.76,17.96 11.68,17.88 C11.6,17.8 11.56,17.696 11.56,17.568 L11.56,9.86399999 C11.56,9.73599999 11.6,9.63199999 11.68,9.55199999 C11.76,9.47199999 11.864,9.43199999 11.992,9.43199999 L12.856,9.43199999 C12.984,9.43199999 13.088,9.47199999 13.168,9.55199999 C13.248,9.63199999 13.288,9.73599999 13.288,9.86399999 Z M16.696,9.86399999 L16.696,17.568 C16.696,17.696 16.656,17.8 16.576,17.88 C16.496,17.96 16.4,18 16.288,18 L15.424,18 C15.296,18 15.192,17.96 15.112,17.88 C15.032,17.8 14.992,17.696 14.992,17.568 L14.992,9.86399999 C14.992,9.73599999 15.032,9.63199999 15.112,9.55199999 C15.192,9.47199999 15.296,9.43199999 15.424,9.43199999 L16.288,9.43199999 C16.4,9.43199999 16.496,9.47199999 16.576,9.55199999 C16.656,9.63199999 16.696,9.73599999 16.696,9.86399999 Z M18.424,19.56 L18.424,6.86399998 L6.42399998,6.86399998 L6.42399998,19.56 C6.42399998,19.752 6.45599998,19.928 6.51999998,20.088 C6.58399998,20.248 6.64799998,20.368 6.71199998,20.448 C6.77599998,20.528 6.82399998,20.568 6.85599998,20.568 L17.992,20.568 C18.024,20.568 18.072,20.528 18.136,20.448 C18.2,20.368 18.264,20.248 18.328,20.088 C18.392,19.928 18.424,19.752 18.424,19.56 Z M9.42399999,5.13599997 L15.424,5.13599997 L14.776,3.57599996 C14.712,3.49599996 14.64,3.44799996 14.56,3.43199996 L10.312,3.43199996 C10.216,3.44799996 10.136,3.49599996 10.072,3.57599996 L9.42399999,5.13599997 Z M21.856,5.56799997 L21.856,6.43199998 C21.856,6.55999998 21.816,6.66399998 21.736,6.74399998 C21.656,6.82399998 21.552,6.86399998 21.424,6.86399998 L20.128,6.86399998 L20.128,19.56 C20.128,20.296 19.92,20.936 19.504,21.48 C19.088,22.024 18.584,22.296 17.992,22.296 L6.85599998,22.296 C6.26399998,22.296 5.75999997,22.032 5.34399997,21.504 C4.92799997,20.976 4.71199997,20.344 4.69599997,19.608 L4.69599997,6.86399998 L3.42399996,6.86399998 C3.29599996,6.86399998 3.19199996,6.82399998 3.11199996,6.74399998 C3.03199996,6.66399998 2.99199996,6.55999998 2.99199996,6.43199998 L2.99199996,5.56799997 C2.99199996,5.43999997 3.03199996,5.33599997 3.11199996,5.25599997 C3.19199996,5.17599997 3.29599996,5.13599997 3.42399996,5.13599997 L7.55199998,5.13599997 L8.48799999,2.90399996 C8.63199999,2.56799996 8.87999999,2.28799996 9.23199999,2.06399996 C9.58399999,1.83999996 9.93599999,1.71999996 10.288,1.70399996 L14.56,1.70399996 C14.912,1.70399996 15.264,1.82399996 15.616,2.06399996 C15.968,2.30399996 16.208,2.58399996 16.336,2.90399996 L17.272,5.13599997 L21.424,5.13599997 C21.552,5.13599997 21.656,5.17599997 21.736,5.25599997 C21.816,5.33599997 21.856,5.43999997 21.856,5.56799997 L21.856,5.56799997 Z" id="ic_trash"></path>
        </g>
    </g>
</svg>

<svg xmlns="http://www.w3.org/2000/svg" viewBox="0 0 24 24"><path fill="#454545" fill-rule="evenodd" d="M9.856 9.864v7.704c0 .128-.04.232-.12.312a.422.422 0 01-.312.12H8.56a.422.422 0 01-.312-.12.422.422 0 01-.12-.312V9.864c0-.128.04-.232.12-.312.08-.08.184-.12.312-.12h.864c.128 0 .232.04.312.12.08.08.12.184.12.312zm3.432 0v7.704c0 .128-.04.232-.12.312a.422.422 0 01-.312.12h-.864a.422.422 0 01-.312-.12.422.422 0 01-.12-.312V9.864c0-.128.04-.232.12-.312.08-.08.184-.12.312-.12h.864c.128 0 .232.04.312.12.08.08.12.184.12.312zm3.408 0v7.704c0 .128-.04.232-.12.312a.393.393 0 01-.288.12h-.864a.422.422 0 01-.312-.12.422.422 0 01-.12-.312V9.864c0-.128.04-.232.12-.312.08-.08.184-.12.312-.12h.864c.112 0 .208.04.288.12.08.08.12.184.12.312zm1.728 9.696V6.864h-12V19.56c0 .192.032.368.096.528.064.16.128.28.192.36.064.08.112.12.144.12h11.136c.032 0 .08-.04.144-.12.064-.08.128-.2.192-.36a1.41 1.41 0 00.096-.528zm-9-14.424h6l-.648-1.56a.372.372 0 00-.216-.144h-4.248a.38.38 0 00-.24.144l-.648 1.56zm12.432.432v.864c0 .128-.04.232-.12.312a.422.422 0 01-.312.12h-1.296V19.56c0 .736-.208 1.376-.624 1.92-.416.544-.92.816-1.512.816H6.856c-.592 0-1.096-.264-1.512-.792-.416-.528-.632-1.16-.648-1.896V6.864H3.424a.422.422 0 01-.312-.12.422.422 0 01-.12-.312v-.864c0-.128.04-.232.12-.312.08-.08.184-.12.312-.12h4.128l.936-2.232c.144-.336.392-.616.744-.84.352-.224.704-.344 1.056-.36h4.272c.352 0 .704.12 1.056.36.352.24.592.52.72.84l.936 2.232h4.152c.128 0 .232.04.312.12.08.08.12.184.12.312z"/></svg>
